svgs/bucket-light.svg

<svg width="400" height="400" viewBox="0 0 400 400" fill="none" xmlns="http://www.w3.org/2000/svg">
<g id="bucket">
<g id="bucket_2">
<path id="Path" d="M54.7952 368H277.154C291.351 368 302.949 356.493 302.949 342.185V180.689C302.949 166.48 291.451 154.874 277.154 154.874H54.7952C40.5978 154.874 29 166.38 29 180.689V342.185C29.1 356.493 40.5978 368 54.7952 368Z" fill="#F0F3F5"/>
<path id="Path_2" fill-rule="evenodd" clip-rule="evenodd" d="M261.956 248.629H69.9923V121.254C69.9923 71.424 110.385 31 160.175 31H171.773C221.564 31 261.956 71.424 261.956 121.254V248.629Z" stroke="#F0F3F5" stroke-width="34"/>
<path id="Path_3" d="M154.776 316.169C143.678 317.97 103.886 333.179 103.886 333.179L93.8877 137.463C93.4878 129.759 98.7868 123.655 105.685 124.055L278.753 136.863L312.447 270.142L154.776 316.169Z" fill="#D8B37D"/>
<path id="Path_4" d="M158.076 197.4L90.3885 196.099C83.7897 195.999 78.4907 201.202 78.4907 207.806V271.944C78.4907 278.848 84.2896 284.352 91.0884 284.052L163.175 280.95C169.774 280.65 174.773 275.046 174.273 268.342L169.874 208.607C169.374 202.403 164.275 197.5 158.076 197.4Z" fill="#FFBE5C"/>
<path id="Shape" d="M93.9285 215.009C92.8241 214.987 91.9108 215.864 91.8886 216.968C91.8663 218.073 92.7435 218.986 93.8479 219.008L93.9285 215.009ZM148.438 220.108C149.542 220.131 150.455 219.253 150.478 218.149C150.5 217.045 149.623 216.131 148.518 216.109L148.438 220.108ZM93.8516 238.921C92.7472 238.941 91.8683 239.853 91.8885 240.957C91.9087 242.062 92.8204 242.941 93.9248 242.92L93.8516 238.921ZM148.515 241.92C149.619 241.9 150.498 240.989 150.478 239.884C150.457 238.78 149.546 237.901 148.441 237.921L148.515 241.92ZM93.8149 261.738C92.7111 261.778 91.8491 262.706 91.8895 263.81C91.93 264.914 92.8576 265.776 93.9615 265.735L93.8149 261.738ZM148.551 263.734C149.655 263.694 150.517 262.766 150.477 261.662C150.436 260.558 149.509 259.696 148.405 259.737L148.551 263.734ZM93.8479 219.008L148.438 220.108L148.518 216.109L93.9285 215.009L93.8479 219.008ZM93.9248 242.92L148.515 241.92L148.441 237.921L93.8516 238.921L93.9248 242.92ZM93.9615 265.735L148.551 263.734L148.405 259.737L93.8149 261.738L93.9615 265.735Z" fill="white"/>
<g id="Group">
<path id="Shape_2" d="M315.846 63.019L317.415 61.7791C317.084 61.3602 316.6 61.091 316.069 61.0315L315.846 63.019ZM199.968 50.0113L200.191 48.0237L200.177 48.0223L199.968 50.0113ZM189.57 211.007H187.57C187.57 212.105 188.454 212.997 189.552 213.007L189.57 211.007ZM338.142 212.308L338.124 214.308C338.658 214.312 339.171 214.104 339.55 213.728C339.929 213.352 340.142 212.841 340.142 212.308H338.142ZM338.142 91.2358H340.142C340.142 90.7857 339.99 90.3489 339.711 89.9958L338.142 91.2358ZM209.465 69.6356C208.366 69.5256 207.386 70.3274 207.276 71.4265C207.166 72.5256 207.968 73.5057 209.067 73.6157L209.465 69.6356ZM250.059 77.7182C251.158 77.8281 252.139 77.0263 252.249 75.9273C252.358 74.8282 251.557 73.848 250.458 73.738L250.059 77.7182ZM213.316 105.851C212.215 105.768 211.254 106.593 211.171 107.694C211.087 108.796 211.912 109.756 213.014 109.84L213.316 105.851ZM321.193 118.045C322.295 118.128 323.255 117.303 323.339 116.202C323.422 115.1 322.597 114.14 321.496 114.056L321.193 118.045ZM316.069 61.0315L200.191 48.0238L199.745 51.9988L315.623 65.0065L316.069 61.0315ZM200.177 48.0223C193.183 47.2855 187.57 52.7438 187.57 60.0172H191.57C191.57 54.8833 195.354 51.5363 199.758 52.0003L200.177 48.0223ZM187.57 60.0172V211.007H191.57V60.0172H187.57ZM189.552 213.007L338.124 214.308L338.159 210.308L189.587 209.007L189.552 213.007ZM340.142 212.308V91.2358H336.142V212.308H340.142ZM339.711 89.9958L317.415 61.7791L314.277 64.259L336.573 92.4757L339.711 89.9958ZM209.067 73.6157L250.059 77.7182L250.458 73.738L209.465 69.6356L209.067 73.6157ZM250.458 73.738L209.465 69.6356L209.067 73.6157L250.059 77.7182L250.458 73.738ZM213.014 109.84L321.193 118.045L321.496 114.056L213.316 105.851L213.014 109.84ZM321.496 114.056L213.316 105.851L213.014 109.84L321.193 118.045L321.496 114.056Z" fill="#999999"/>
<path id="Path_5" fill-rule="evenodd" clip-rule="evenodd" d="M315.846 63.019V78.9285C315.846 84.6319 319.845 89.5348 324.644 90.0351L338.142 91.3358L315.846 63.019V63.019Z" stroke="#999999" stroke-width="4" stroke-linecap="round" stroke-linejoin="round"/>
</g>
<g id="Group_2">
<path id="Path_6" d="M297.25 307.562L144.778 308.863C138.58 308.963 133.48 303.76 133.48 297.356V94.3359C133.48 87.9321 138.58 83.1292 144.778 83.6295L297.25 96.8374C302.349 97.2376 306.448 102.341 306.448 108.044V296.856C306.348 302.76 302.249 307.462 297.25 307.562Z" fill="#FFBE5C"/>
<path id="Shape_3" fill-rule="evenodd" clip-rule="evenodd" d="M152.177 98.0363C152.177 95.5348 150.178 93.3335 147.778 93.1334C145.279 92.9332 143.379 94.8344 143.379 97.3359C143.379 99.8373 145.379 102.039 147.778 102.239C150.278 102.439 152.177 100.538 152.177 98.0363ZM167.174 99.237C167.174 96.7355 165.275 94.5342 162.875 94.3341C160.475 94.134 158.476 96.0351 158.476 98.5366C158.476 101.038 160.475 103.239 162.875 103.439C165.275 103.54 167.174 101.738 167.174 99.237ZM177.573 95.5332C179.972 95.7333 181.872 97.8346 181.872 100.336C181.872 102.838 179.972 104.739 177.573 104.539C175.173 104.338 173.274 102.237 173.274 99.7357C173.274 97.2342 175.173 95.3331 177.573 95.5332Z" fill="#DD7E10"/>
</g>
<path id="Path_7" d="M241.96 137.465C242.56 130.961 248.059 126.058 254.058 126.458L361.638 133.763C366.837 134.163 370.536 139.166 369.936 145.17L352.839 317.872C352.24 323.776 347.54 328.879 342.241 329.279L115.084 344.988C107.985 345.488 102.686 340.185 103.386 333.281L120.983 155.576C121.683 148.572 127.981 143.268 134.98 143.669L229.462 148.672C235.861 148.872 241.36 143.869 241.96 137.465Z" fill="#FFD493"/>
<path id="Shape_4" d="M98.6874 67.2214C98.6874 66.1169 97.792 65.2214 96.6874 65.2214C95.5828 65.2214 94.6874 66.1169 94.6874 67.2214H98.6874ZM94.6874 74.5258C94.6874 75.6303 95.5828 76.5258 96.6874 76.5258C97.792 76.5258 98.6874 75.6303 98.6874 74.5258H94.6874ZM98.6875 89.7348C98.6875 88.6302 97.7921 87.7348 96.6875 87.7348C95.5829 87.7348 94.6875 88.6302 94.6875 89.7348H98.6875ZM94.6875 97.6395C94.6875 98.7441 95.5829 99.6395 96.6875 99.6395C97.7921 99.6395 98.6875 98.7441 98.6875 97.6395H94.6875ZM111.884 84.4302C112.989 84.4302 113.884 83.5348 113.884 82.4302C113.884 81.3256 112.989 80.4302 111.884 80.4302V84.4302ZM104.585 80.4302C103.481 80.4302 102.585 81.3256 102.585 82.4302C102.585 83.5348 103.481 84.4302 104.585 84.4302V80.4302ZM88.7889 84.4302C89.8934 84.4302 90.7889 83.5347 90.7889 82.4302C90.7889 81.3256 89.8934 80.4302 88.7889 80.4302V84.4302ZM81.4902 80.4302C80.3857 80.4302 79.4902 81.3256 79.4902 82.4302C79.4902 83.5347 80.3857 84.4302 81.4902 84.4302V80.4302ZM94.6874 67.2214V74.5258H98.6874V67.2214H94.6874ZM94.6875 89.7348V97.6395H98.6875V89.7348H94.6875ZM111.884 80.4302H104.585V84.4302H111.884V80.4302ZM88.7889 80.4302H81.4902V84.4302H88.7889V80.4302Z" fill="#999999"/>
</g>
</g>
</svg>

<svg xmlns="http://www.w3.org/2000/svg" width="400" height="400" fill="none" viewBox="0 0 400 400"><path fill="#F0F3F5" d="M54.795 368h222.359c14.197 0 25.795-11.507 25.795-25.815V180.689c0-14.209-11.498-25.815-25.795-25.815H54.795C40.598 154.874 29 166.38 29 180.689v161.496C29.1 356.493 40.598 368 54.795 368"/><path stroke="#F0F3F5" stroke-width="34" d="M261.956 248.629H69.992V121.254c0-49.83 40.393-90.254 90.183-90.254h11.598c49.791 0 90.183 40.424 90.183 90.254z" clip-rule="evenodd"/><path fill="#D8B37D" d="M154.776 316.169c-11.098 1.801-50.89 17.01-50.89 17.01l-9.998-195.716c-.4-7.704 4.899-13.808 11.797-13.408l173.068 12.808 33.694 133.279z"/><path fill="#FFBE5C" d="m158.076 197.4-67.687-1.301c-6.6-.1-11.898 5.103-11.898 11.707v64.138c0 6.904 5.799 12.408 12.597 12.108l72.087-3.102c6.599-.3 11.598-5.904 11.098-12.608l-4.399-59.735c-.5-6.204-5.599-11.107-11.798-11.207"/><path fill="#fff" d="M93.929 215.009a2 2 0 0 0-.081 3.999zm54.509 5.099a2 2 0 1 0 .08-3.999zm-54.586 18.813a2 2 0 1 0 .073 3.999zm54.663 2.999a2 2 0 1 0-.074-3.999zm-54.7 19.818a2 2 0 1 0 .147 3.997zm54.736 1.996a2 2 0 0 0-.146-3.997zm-54.703-44.726 54.59 1.1.08-3.999-54.59-1.1zm.077 23.912 54.59-1-.074-3.999-54.59 1zm.037 22.815 54.589-2.001-.146-3.997-54.59 2.001z"/><path fill="#999" d="m315.846 63.019 1.569-1.24a2 2 0 0 0-1.346-.748zM199.968 50.011l.223-1.987-.014-.002zM189.57 211.007h-2a2 2 0 0 0 1.982 2zm148.572 1.301-.018 2a2 2 0 0 0 2.018-2zm0-121.072h2a2 2 0 0 0-.431-1.24zm-128.677-21.6a2 2 0 1 0-.398 3.98zm40.594 8.082a2 2 0 0 0 .399-3.98zm-36.743 28.133a2 2 0 0 0-.302 3.989zm107.877 12.194a2.001 2.001 0 0 0 .303-3.989zm-5.124-57.013L200.191 48.024l-.446 3.975 115.878 13.008zm-115.892-13.01c-6.994-.736-12.607 4.722-12.607 11.995h4c0-5.134 3.784-8.48 8.188-8.017zM187.57 60.017v150.99h4V60.017zm1.982 152.99 148.572 1.301.035-4-148.572-1.301zm150.59-.699V91.236h-4v121.072zm-.431-122.312-22.296-28.217-3.138 2.48 22.296 28.217zm-130.644-16.38 40.992 4.102.399-3.98-40.993-4.102zm41.391.122-40.993-4.102-.398 3.98 40.992 4.102zm-37.444 36.102 108.179 8.205.303-3.989-108.18-8.205zm108.482 4.216-108.18-8.205-.302 3.989 108.179 8.205z"/><path stroke="#999" stroke-linecap="round" stroke-linejoin="round" stroke-width="4" d="M315.846 63.019v15.91c0 5.703 3.999 10.606 8.798 11.106l13.498 1.3z" clip-rule="evenodd"/><path fill="#FFBE5C" d="m297.25 307.562-152.472 1.301c-6.198.1-11.298-5.103-11.298-11.507V94.336c0-6.404 5.1-11.207 11.298-10.707L297.25 96.837c5.099.4 9.198 5.504 9.198 11.207v188.812c-.1 5.904-4.199 10.606-9.198 10.706"/><path fill="#DD7E10" fill-rule="evenodd" d="M152.177 98.036c0-2.501-1.999-4.703-4.399-4.903-2.499-.2-4.399 1.701-4.399 4.203 0 2.501 2 4.703 4.399 4.903 2.5.2 4.399-1.701 4.399-4.203m14.997 1.201c0-2.501-1.899-4.703-4.299-4.903s-4.399 1.701-4.399 4.203c0 2.501 1.999 4.702 4.399 4.902 2.4.101 4.299-1.701 4.299-4.202m10.399-3.704c2.399.2 4.299 2.302 4.299 4.803s-1.9 4.403-4.299 4.203c-2.4-.201-4.299-2.302-4.299-4.803s1.899-4.403 4.299-4.203" clip-rule="evenodd"/><path fill="#FFD493" d="M241.96 137.465c.6-6.504 6.099-11.407 12.098-11.007l107.58 7.305c5.199.4 8.898 5.403 8.298 11.407l-17.097 172.702c-.599 5.904-5.299 11.007-10.598 11.407l-227.157 15.709c-7.099.5-12.398-4.803-11.698-11.707l17.597-177.705c.7-7.004 6.998-12.308 13.997-11.907l94.482 5.003c6.399.2 11.898-4.803 12.498-11.207"/><path fill="#999" d="M98.687 67.221a2 2 0 0 0-4 0zm-4 7.305a2 2 0 0 0 4 0zm4 15.209a2 2 0 1 0-4 0zm-4 7.904a2 2 0 1 0 4 0zm17.197-13.209a2 2 0 1 0 0-4zm-7.299-4a2 2 0 0 0 0 4zm-15.796 4a2 2 0 0 0 0-4zm-7.299-4a2 2 0 0 0 0 4zm13.197-13.209v7.305h4V67.22zm0 22.514v7.904h4v-7.904zm17.197-9.305h-7.299v4h7.299zm-23.095 0H81.49v4h7.299z"/></svg>
